public/avatar/body/83.svg

<svg xmlns:xlink="http://www.w3.org/1999/xlink" height="82" width="84.85" xmlns="http://www.w3.org/2000/svg"><g transform="translate(37.4 42.25)"><use height="38" transform="translate(-11.95 -17.45)" width="32.05" xlink:href="#a"/><use height="21.6" transform="translate(-12.25 -17.95)" width="32.65" xlink:href="#b"/><use height="38.4" transform="translate(-14.75 -17.35)" width="37.55" xlink:href="#c"/></g><defs><path d="M27.35 7.4q2.15 4.15 3.55 8.75 1.45 4.7 1.15 9.5-.35 4.95-4.2 8.1-3.8 3.2-8.75 4.05l-2.6.2q-3.6 0-7.05-1.15-4.65-1.6-7.1-5.5Q-.2 27.4.05 23q.2-4.4 2-9.3Q3.85 8.75 7 5.05 10.1 1.3 14.7.1l1.8-.1q1.9.05 3.7.8 4.75 2.05 7.15 6.6" fill="#ebf6f5" fill-rule="evenodd" transform="translate(-.05)" id="d"/><path d="M31.9 20.6q-.3-2.25-1-4.45-1.4-4.6-3.55-8.75-2.4-4.55-7.15-6.6-2.65-1.1-5.5-.7Q10.1 1.3 7 5.05q-3.15 3.7-4.95 8.65Q.7 17.3.25 20.6" fill="none" stroke="#000" stroke-linecap="round" stroke-linejoin="round" transform="translate(.25 .5)" id="e"/><use height="38" width="32.05" xlink:href="#d" id="a"/><use height="21.6" width="32.65" xlink:href="#e" id="b"/><g id="c"><path d="M19.85 9.5Q17.9 20.7 4.75 20.7q-13.1 0-15.55-10.9-1.25-5.45.15-10.9 1.7 2.45 4.4 4.95 5.5 4.9 10.7 4.9 5.2 0 10.5-5.25Q17.6.9 19.2-1.75q1.65 5.6.65 11.25" fill="#fff" fill-rule="evenodd" transform="translate(14.75 17.35)"/><path d="m19.7 1.1-.85 4.65q.4 9.15-4.15 12.1-4.6 2.9-10.2 2.9l-.05-3.85q2.3-5.05 3.75-6.65L13.25 5l5.5-5.9.95 2" fill="#ff8080" fill-rule="evenodd" transform="translate(14.75 17.35)"/><path d="M19.2-1.75q-3 4.5-5.1 6.35L10.2 8" fill="none" stroke="#d44e4e" stroke-linecap="round" stroke-linejoin="round" transform="translate(14.75 17.35)"/><path d="m-11.4 1.1.9-2L-5 5l5.1 5.25q1.4 1.6 3.75 6.65l-.1 3.85q-5.55 0-10.15-2.9-4.6-2.95-4.15-12.1l-.85-4.65" fill="#ff8080" fill-rule="evenodd" transform="translate(14.75 17.35)"/><path d="M-10.65-1.1-6 4.1l4.25 3.65" fill="none" stroke="#d44e4e" stroke-linecap="round" stroke-linejoin="round" transform="translate(14.75 17.35)"/><path d="m10.85 11.6.2 1.45q.15 1.75-.2 3.2-1.15 4.6-6.65 4.6-5.55 0-6.55-4.6-.3-1.5-.15-3.2l.25-1.45h13.1" fill="#fff" fill-rule="evenodd" transform="translate(14.75 17.35)"/><path d="M-2.05 15.95q-.5.15-1.4-.55-.85-.6-1.1-1.15-.8-1.7.05-3.35l1.9-3.2q1.05-.7 1.45 1.2.3 1.4.15 2.7-.2 2.7-1 4.25l-.05.1" fill="#e34f4f" fill-rule="evenodd" transform="translate(14.75 17.35)"/><path d="M1.8 9.9q6.85 0 8.5 1.95 1.9 2.45.2 3.6l-3.15.15-3.85-.9-3.8 1.4q-2.45.65-2.45-1.65l-.1-2.5.05-.05q.25-.5 1.45-1.25 1.1-.75 3.15-.75" fill="#c9c9c9" fill-rule="evenodd" transform="translate(14.75 17.35)"/><path d="m33.1 31.35-.3.3-.25.35-.3.3-.25.35-.95.9-.15.1-.15.2-.8.55-.2.2-.5.3-.5.4-.55.25-.5.35-2.2 1-3.5 1-4.95.05-2.4-.35-2.3-.65-2.25-1-1.9-1.2-1.65-1.5-1.35-1.8" fill="none" stroke="#333" stroke-linecap="round" stroke-linejoin="round" stroke-width=".95"/><path d="m20.9 3.15.1-.1.2 4.15-.2 3.05q.2 3.15.7 4.85.5 1.85-.1 2.85-1.3 1.9-2.8 2.4l-5.5.35q-.45-.15-.6-.55l-.05-7.7q-.1-3.9 4.6-9 1.85-2 3.4-1.85l.25 1.55m-33.5 7.4-.2-3.35.25-4.9.1.2.2-.9.95.2q1.2.4 2.3 1.65 4.5 5.15 4.4 9l-.2 7.6q-.15.45-.55.6-1.95.8-5.35-.45-1.25-.4-2.35-2.55-.65-1.05-.15-2.9.5-1.95.6-4.2" fill-rule="evenodd" transform="translate(14.75 17.35)"/><path d="m4.65 8.45 4.75-3.5q1.3-.35 1.95 1.85.55 1.7.4 3.3-.3 4.35-1.75 4.35-.8 0-3.15-1.5l-2.2-1.5v-3m-.75 0v3q-4.15 3-5.4 3-1.3 0-1.75-4.35-.1-1.25.7-3.15.85-2.05 1.7-2Q.4 5.1 3.9 8.45" fill="#e50000" fill-rule="evenodd" transform="translate(14.75 17.35)"/><path d="M7 9.95q0 2.75-2.75 2.75T1.5 9.95q0-2.75 2.75-2.75T7 9.95" fill="#e50000" fill-rule="evenodd" transform="translate(14.75 17.35)"/><path d="M18.55 5.45q0 1.55-.5 2.25l.55-.7-2.2 3.3q-1.2 1.95-1.2 3.7l-.1 4.35-.25 2q-.75 1-1.75.2-.75-.6-.75-4.05 0-2.1.15-4.15.4-3.95 3.2-7Q17.85 3 18.15 3q.4.95.4 2.45" fill="#4a4a4a" fill-rule="evenodd" transform="translate(14.75 17.35)"/><path d="M20.35-1.55q1.9 1.5 1.9 2.3 0 2.2-2.75 5.35-2.35 2.75-4.35 4.1l1.6-5.85q1.5-1.9 1.75-3.15l-.1-4.1 1.95 1.35m-32.65 0 1.95-1.35-.15 4.1q.25 1.25 1.75 3.15L-8 8.7q-.6.4-3-2.35-3.25-3.8-3.25-5.6 0-.8 1.95-2.3" fill="#4a4a4a" fill-rule="evenodd" transform="translate(14.75 17.35)"/><path d="M-8.75 3.75Q-6.25 6.3-5.4 8.6q1.35 3.4 1.05 7.45v2.65q-.15 1.7-1.4 1.85-1.45.2-1.85-1.85-.35-1.7.05-3.1.9-3.2-1-6.05-4-3.3-3.95-5.6l-.1-.1q.85-3.2 3.85-.1" fill="#4a4a4a" fill-rule="evenodd" transform="translate(14.75 17.35)"/><path d="M5.6 19.25q0 1.45-1.45 1.45T2.7 19.25q0-1.4 1.45-1.4t1.45 1.4m0-4.1q0 1.45-1.45 1.45T2.7 15.15q0-1.45 1.45-1.45t1.45 1.45" fill-rule="evenodd" transform="translate(14.75 17.35)"/><path d="m-1.85 8.1 1.3 3.05q.9 1.8-.05 3-1.05.7-1.9-.6-.75-1.15-.8-2.55-.1-1.85.45-3.2l.75-1.15.25 1.45m4.65.2.55 2.65.8 1.05q.5.65-.2.65-1.35 0-1.35-1.95-.1-1.8.2-2.4M6.95 13q-1.2-.6-.9-2.05.25-1.55-.2-2.5L6.9 10.8l.7 1.5 1.1.85q.8 1.05-.6.4L6.95 13" fill="#bf0000" fill-rule="evenodd" transform="translate(14.75 17.35)"/><path d="M4.55 9.5q-.5-2.15.6-1.6.45.2.65 1.25t-.15 1.4q-.8.7-1.1-1.05M2.7 7.65l.05.1L1.9 9.8Q-.85 5.9-1.45 5.5q.4-.85 2.15.35 1.4.95 2 1.8m5.75-2.3q1.4-.9 2.15-.35.85.65 1.1 3.1.25 1.25 0 1.55-.2.25-.8-.9-1-2.05-1.35-2.25l-2.3-.25 1.2-.9" fill="#ff8585" fill-rule="evenodd" transform="translate(14.75 17.35)"/><path d="M11.35 6.3q-.55-1.65-1.4-1.65-.7 0-1.85.9l-1 .9-1.4 1.2q-.6-.45-1.45-.45l-1.55.45Q.6 4.95-.85 4.95q-.95 0-1.8 2.3-.75 1.95-.7 3.15.15 4.1 1.85 4.05 1.4-.05 4.1-2.1l.5.45 1.5.3q1.3-.2 1.55-.65 2.75 2.2 3.85 2 1.55-.25 1.75-4.35.15-2.15-.4-3.8Z" fill="none" stroke="#8c0000" stroke-linecap="round" stroke-linejoin="round" transform="translate(14.75 17.35)"/><path d="m18.75-2.65 1.7 1.1q1.75 1.3 1.8 2.3.25 2.65-1.75 5.35l-2.1 2.85M-10.35-2.9l-1.9 1.25q-1.9 1.4-2 2.4-.2 3 2.5 6.2" fill="none" stroke="#000" stroke-linecap="round" stroke-linejoin="round" transform="translate(14.75 17.35)"/><path d="M21.1-.25q1.15 2.65-.65 4.6M-12.4-.6l-.5.45q-.5.7-.45 1.65 0 1 1.6 3.85" fill="none" stroke="#8c8c8c" stroke-linecap="round" stroke-linejoin="round" transform="translate(14.75 17.35)"/><path d="M19.8 2.05q.8-.15.75 1.5L20 7.85q.2 1.15-.8 3l-1.6 2.85-2.65 6.25q-2.4-4.8-1.8-7.25.7-2.6 2.75-3.6l3.9-7.05M-7.65 8.4q2.1 2.6 2.55 4.3.6 2.45-1.75 7.25l-2.7-6.25q-2.25-3.5-2.5-5.55-.2-1.35.5-1.8.75-.55 2.1.25.65.4 1.8 1.8" fill="#4a4a4a" fill-rule="evenodd" transform="translate(14.75 17.35)"/><path d="m-10.3-2.3-.2 2.2q0 2.35.85 2.95 4.85 3.6 5 9 .3 8.6-1.1 8.7L-7.8 20M18.4-2.9q1.2 4.2-.5 5.7-3.65 3.3-5.05 8.05-.65 2.1-.55 5.8.1 3.7.8 3.9l2.4-.05" fill="none" stroke="#303030" stroke-linecap="round" stroke-linejoin="round" transform="translate(14.75 17.35)"/><path d="M.55-12.15q-1.3.55-3.15.65-1.75.1-2.35-.45l1-1.1.9-.75q1.05-.85 1.95-1.95 2.25-1.55 5.8-1.6.2 2.1-.85 3.25-.9 1-3.3 1.95" fill-rule="evenodd" transform="translate(14.75 17.35)"/><path d="m4.65-17.15-.55-.05h.55v.05l1.75-.05q.85.25 2.2.9 2.9 1.45 3.8 2.7-1.6.85-5.4-.6-2.45-.9-2.35-2.95" fill-rule="evenodd" transform="translate(14.75 17.35)"/></g></defs></svg>

<?xml version="1.0" encoding="UTF-8" standalone="no"?>
<svg xmlns:xlink="http://www.w3.org/1999/xlink" height="82.0px" width="84.85px" xmlns="http://www.w3.org/2000/svg">
  <g transform="matrix(1.0, 0.0, 0.0, 1.0, 37.4, 42.25)">
    <use height="38.0" transform="matrix(1.0, 0.0, 0.0, 1.0, -11.95, -17.45)" width="32.05" xlink:href="#sprite0"/>
    <use height="21.6" transform="matrix(1.0, 0.0, 0.0, 1.0, -12.25, -17.95)" width="32.65" xlink:href="#sprite1"/>
    <use height="38.4" transform="matrix(1.0, 0.0, 0.0, 1.0, -14.75, -17.35)" width="37.55" xlink:href="#shape2"/>
  </g>
  <defs>
    <g id="sprite0" transform="matrix(1.0, 0.0, 0.0, 1.0, -0.05, 0.0)">
      <use height="38.0" transform="matrix(1.0, 0.0, 0.0, 1.0, 0.05, 0.0)" width="32.05" xlink:href="#shape0"/>
    </g>
    <g id="shape0" transform="matrix(1.0, 0.0, 0.0, 1.0, -0.05, 0.0)">
      <path d="M27.35 7.4 Q29.5 11.55 30.9 16.15 32.35 20.85 32.05 25.65 31.7 30.6 27.85 33.75 24.05 36.95 19.1 37.8 L16.5 38.0 Q12.9 38.0 9.45 36.85 4.8 35.25 2.35 31.35 -0.2 27.4 0.05 23.0 0.25 18.6 2.05 13.7 3.85 8.75 7.0 5.05 10.1 1.3 14.7 0.1 L16.5 0.0 Q18.4 0.05 20.2 0.8 24.95 2.85 27.35 7.4" fill="#ebf6f5" fill-rule="evenodd" stroke="none"/>
    </g>
    <g id="sprite1" transform="matrix(1.0, 0.0, 0.0, 1.0, 0.25, 0.5)">
      <use height="21.6" transform="matrix(1.0, 0.0, 0.0, 1.0, -0.25, -0.5)" width="32.65" xlink:href="#shape1"/>
    </g>
    <g id="shape1" transform="matrix(1.0, 0.0, 0.0, 1.0, 0.25, 0.5)">
      <path d="M31.9 20.6 Q31.6 18.35 30.9 16.15 29.5 11.55 27.35 7.4 24.95 2.85 20.2 0.8 17.55 -0.3 14.7 0.1 10.1 1.3 7.0 5.05 3.85 8.75 2.05 13.7 0.7 17.3 0.25 20.6" fill="none" stroke="#000000" stroke-linecap="round" stroke-linejoin="round" stroke-width="1.0"/>
    </g>
    <g id="shape2" transform="matrix(1.0, 0.0, 0.0, 1.0, 14.75, 17.35)">
      <path d="M19.85 9.5 Q17.9 20.7 4.75 20.7 -8.35 20.7 -10.8 9.8 -12.05 4.35 -10.65 -1.1 -8.95 1.35 -6.25 3.85 -0.75 8.75 4.45 8.75 9.65 8.75 14.95 3.5 17.6 0.9 19.2 -1.75 20.85 3.85 19.85 9.5" fill="#ffffff" fill-rule="evenodd" stroke="none"/>
      <path d="M19.7 1.1 L18.85 5.75 Q19.25 14.9 14.7 17.85 10.1 20.75 4.5 20.75 L4.45 16.9 Q6.75 11.85 8.2 10.25 L13.25 5.0 18.75 -0.9 19.7 1.1" fill="#ff8080" fill-rule="evenodd" stroke="none"/>
      <path d="M19.2 -1.75 Q16.2 2.75 14.1 4.6 L10.2 8.0" fill="none" stroke="#d44e4e" stroke-linecap="round" stroke-linejoin="round" stroke-width="1.0"/>
      <path d="M-11.4 1.1 L-10.5 -0.9 -5.0 5.0 0.1 10.25 Q1.5 11.85 3.85 16.9 L3.75 20.75 Q-1.8 20.75 -6.4 17.85 -11.0 14.9 -10.55 5.75 L-11.4 1.1" fill="#ff8080" fill-rule="evenodd" stroke="none"/>
      <path d="M-10.65 -1.1 L-6.0 4.1 -1.75 7.75" fill="none" stroke="#d44e4e" stroke-linecap="round" stroke-linejoin="round" stroke-width="1.0"/>
      <path d="M10.85 11.6 L11.05 13.05 Q11.2 14.8 10.85 16.25 9.7 20.85 4.2 20.85 -1.35 20.85 -2.35 16.25 -2.65 14.75 -2.5 13.05 L-2.25 11.6 10.85 11.6" fill="#ffffff" fill-rule="evenodd" stroke="none"/>
      <path d="M-2.05 15.95 Q-2.55 16.1 -3.45 15.4 -4.3 14.8 -4.55 14.25 -5.35 12.55 -4.5 10.9 L-2.6 7.7 Q-1.55 7.0 -1.15 8.9 -0.85 10.3 -1.0 11.6 -1.2 14.3 -2.0 15.85 L-2.05 15.95" fill="#e34f4f" fill-rule="evenodd" stroke="none"/>
      <path d="M1.8 9.9 Q8.65 9.9 10.3 11.85 12.2 14.3 10.5 15.45 L7.35 15.6 3.5 14.7 -0.3 16.1 Q-2.75 16.75 -2.75 14.45 L-2.85 11.95 -2.8 11.9 Q-2.55 11.4 -1.35 10.65 -0.25 9.9 1.8 9.9" fill="#c9c9c9" fill-rule="evenodd" stroke="none"/>
      <path d="M18.35 14.0 L18.05 14.3 17.8 14.65 17.5 14.95 17.25 15.3 16.3 16.2 16.15 16.3 16.0 16.5 15.2 17.05 15.0 17.25 14.5 17.55 14.0 17.95 13.45 18.2 12.95 18.55 10.75 19.55 7.25 20.55 2.3 20.6 -0.1 20.25 -2.4 19.6 -4.65 18.6 -6.55 17.4 -8.2 15.9 -9.55 14.1" fill="none" stroke="#333333" stroke-linecap="round" stroke-linejoin="round" stroke-width="0.9500000000000001"/>
      <path d="M20.9 3.15 L21.0 3.05 21.2 7.2 21.0 10.25 Q21.2 13.4 21.7 15.1 22.2 16.95 21.6 17.95 20.3 19.85 18.8 20.35 L13.3 20.7 Q12.85 20.55 12.7 20.15 L12.65 12.45 Q12.55 8.55 17.25 3.45 19.1 1.45 20.65 1.6 L20.9 3.15" fill="#000000" fill-rule="evenodd" stroke="none"/>
      <path d="M-12.6 10.55 L-12.8 7.2 -12.55 2.3 -12.45 2.5 -12.25 1.6 -11.3 1.8 Q-10.1 2.2 -9.0 3.45 -4.5 8.6 -4.6 12.45 L-4.8 20.05 Q-4.95 20.5 -5.35 20.65 -7.3 21.45 -10.7 20.2 -11.95 19.8 -13.05 17.65 -13.7 16.6 -13.2 14.75 -12.7 12.8 -12.6 10.55" fill="#000000" fill-rule="evenodd" stroke="none"/>
      <path d="M4.65 8.45 L9.4 4.95 Q10.7 4.6 11.35 6.8 11.9 8.5 11.75 10.1 11.45 14.45 10.0 14.45 9.2 14.45 6.85 12.95 L4.65 11.45 4.65 8.45" fill="#e50000" fill-rule="evenodd" stroke="none"/>
      <path d="M3.9 8.45 L3.9 11.45 Q-0.25 14.45 -1.5 14.45 -2.8 14.45 -3.25 10.1 -3.35 8.85 -2.55 6.95 -1.7 4.9 -0.85 4.95 0.4 5.1 3.9 8.45" fill="#e50000" fill-rule="evenodd" stroke="none"/>
      <path d="M7.0 9.95 Q7.0 12.7 4.25 12.7 1.5 12.7 1.5 9.95 1.5 7.2 4.25 7.2 7.0 7.2 7.0 9.95" fill="#e50000" fill-rule="evenodd" stroke="none"/>
      <path d="M18.55 5.45 Q18.55 7.0 18.05 7.7 L18.6 7.0 16.4 10.3 Q15.2 12.25 15.2 14.0 L15.1 18.35 14.85 20.35 Q14.1 21.35 13.1 20.55 12.35 19.95 12.35 16.5 12.35 14.4 12.5 12.35 12.9 8.4 15.7 5.35 17.85 3.0 18.15 3.0 18.55 3.95 18.55 5.45" fill="#4a4a4a" fill-rule="evenodd" stroke="none"/>
      <path d="M20.35 -1.55 Q22.25 -0.05 22.25 0.75 22.25 2.95 19.5 6.1 17.15 8.85 15.15 10.2 L16.75 4.35 Q18.25 2.45 18.5 1.2 L18.4 -2.9 20.35 -1.55" fill="#4a4a4a" fill-rule="evenodd" stroke="none"/>
      <path d="M-12.3 -1.55 L-10.35 -2.9 -10.5 1.2 Q-10.25 2.45 -8.75 4.35 L-8.0 8.7 Q-8.6 9.1 -11.0 6.35 -14.25 2.55 -14.25 0.75 -14.25 -0.05 -12.3 -1.55" fill="#4a4a4a" fill-rule="evenodd" stroke="none"/>
      <path d="M-8.75 3.75 Q-6.25 6.3 -5.4 8.6 -4.05 12.0 -4.35 16.05 L-4.35 18.7 Q-4.5 20.4 -5.75 20.55 -7.2 20.75 -7.6 18.7 -7.95 17.0 -7.55 15.6 -6.65 12.4 -8.55 9.55 -12.55 6.25 -12.5 3.95 L-12.6 3.85 Q-11.75 0.65 -8.75 3.75" fill="#4a4a4a" fill-rule="evenodd" stroke="none"/>
      <path d="M5.6 19.25 Q5.6 20.7 4.15 20.7 2.7 20.7 2.7 19.25 2.7 17.85 4.15 17.85 5.6 17.85 5.6 19.25" fill="#000000" fill-rule="evenodd" stroke="none"/>
      <path d="M5.6 15.15 Q5.6 16.6 4.15 16.6 2.7 16.6 2.7 15.15 2.7 13.7 4.15 13.7 5.6 13.7 5.6 15.15" fill="#000000" fill-rule="evenodd" stroke="none"/>
      <path d="M-1.85 8.1 L-0.55 11.15 Q0.35 12.95 -0.6 14.15 -1.65 14.85 -2.5 13.55 -3.25 12.4 -3.3 11.0 -3.4 9.15 -2.85 7.8 L-2.1 6.65 -1.85 8.1" fill="#bf0000" fill-rule="evenodd" stroke="none"/>
      <path d="M2.8 8.3 L3.35 10.95 4.15 12.0 Q4.65 12.65 3.95 12.65 2.6 12.65 2.6 10.7 2.5 8.9 2.8 8.3" fill="#bf0000" fill-rule="evenodd" stroke="none"/>
      <path d="M6.95 13.0 Q5.75 12.4 6.05 10.95 6.3 9.4 5.85 8.45 L6.9 10.8 7.6 12.3 8.7 13.15 Q9.5 14.2 8.1 13.55 L6.95 13.0" fill="#bf0000" fill-rule="evenodd" stroke="none"/>
      <path d="M4.55 9.5 Q4.05 7.35 5.15 7.9 5.6 8.1 5.8 9.15 6.0 10.2 5.65 10.55 4.85 11.25 4.55 9.5" fill="#ff8585" fill-rule="evenodd" stroke="none"/>
      <path d="M2.7 7.65 L2.75 7.75 1.9 9.8 Q-0.85 5.9 -1.45 5.5 -1.05 4.65 0.7 5.85 2.1 6.8 2.7 7.65" fill="#ff8585" fill-rule="evenodd" stroke="none"/>
      <path d="M8.45 5.35 Q9.85 4.45 10.6 5.0 11.45 5.65 11.7 8.1 11.95 9.35 11.7 9.65 11.5 9.9 10.9 8.75 9.9 6.7 9.55 6.5 L7.25 6.25 8.45 5.35" fill="#ff8585" fill-rule="evenodd" stroke="none"/>
      <path d="M11.35 6.3 Q10.8 4.65 9.95 4.65 9.25 4.65 8.1 5.55 L7.1 6.45 5.7 7.65 Q5.1 7.2 4.25 7.2 L2.7 7.65 Q0.6 4.95 -0.85 4.95 -1.8 4.95 -2.65 7.25 -3.4 9.2 -3.35 10.4 -3.2 14.5 -1.5 14.45 -0.1 14.4 2.6 12.35 L3.1 12.8 4.6 13.1 Q5.9 12.9 6.15 12.45 8.9 14.65 10.0 14.45 11.55 14.2 11.75 10.1 11.9 7.95 11.35 6.3 Z" fill="none" stroke="#8c0000" stroke-linecap="round" stroke-linejoin="round" stroke-width="1.0"/>
      <path d="M18.75 -2.65 L20.45 -1.55 Q22.2 -0.25 22.25 0.75 22.5 3.4 20.5 6.1 L18.4 8.95" fill="none" stroke="#000000" stroke-linecap="round" stroke-linejoin="round" stroke-width="1.0"/>
      <path d="M-10.35 -2.9 L-12.25 -1.65 Q-14.15 -0.25 -14.25 0.75 -14.45 3.75 -11.75 6.95" fill="none" stroke="#000000" stroke-linecap="round" stroke-linejoin="round" stroke-width="1.0"/>
      <path d="M21.1 -0.25 Q22.25 2.4 20.45 4.35" fill="none" stroke="#8c8c8c" stroke-linecap="round" stroke-linejoin="round" stroke-width="1.0"/>
      <path d="M-12.4 -0.6 L-12.9 -0.15 Q-13.4 0.55 -13.35 1.5 -13.35 2.5 -11.75 5.35" fill="none" stroke="#8c8c8c" stroke-linecap="round" stroke-linejoin="round" stroke-width="1.0"/>
      <path d="M19.8 2.05 Q20.6 1.9 20.55 3.55 L20.0 7.85 Q20.2 9.0 19.2 10.85 L17.6 13.7 14.95 19.95 Q12.55 15.15 13.15 12.7 13.85 10.1 15.9 9.1 L19.8 2.05" fill="#4a4a4a" fill-rule="evenodd" stroke="none"/>
      <path d="M-7.65 8.4 Q-5.55 11.0 -5.1 12.7 -4.5 15.15 -6.85 19.95 L-9.55 13.7 Q-11.8 10.2 -12.05 8.15 -12.25 6.8 -11.55 6.35 -10.8 5.8 -9.45 6.6 -8.8 7.0 -7.65 8.4" fill="#4a4a4a" fill-rule="evenodd" stroke="none"/>
      <path d="M-10.3 -2.3 L-10.5 -0.1 Q-10.5 2.25 -9.65 2.85 -4.8 6.45 -4.65 11.85 -4.35 20.45 -5.75 20.55 L-7.8 20.0" fill="none" stroke="#303030" stroke-linecap="round" stroke-linejoin="round" stroke-width="1.0"/>
      <path d="M18.4 -2.9 Q19.6 1.3 17.9 2.8 14.25 6.1 12.85 10.85 12.2 12.95 12.3 16.65 12.4 20.35 13.1 20.55 L15.5 20.5" fill="none" stroke="#303030" stroke-linecap="round" stroke-linejoin="round" stroke-width="1.0"/>
      <path d="M0.55 -12.15 Q-0.75 -11.6 -2.6 -11.5 -4.35 -11.4 -4.95 -11.95 L-3.95 -13.05 -3.05 -13.8 Q-2.0 -14.65 -1.1 -15.75 1.15 -17.3 4.7 -17.35 4.9 -15.25 3.85 -14.1 2.95 -13.1 0.55 -12.15" fill="#000000" fill-rule="evenodd" stroke="none"/>
      <path d="M4.65 -17.15 L4.1 -17.2 4.65 -17.2 4.65 -17.15 6.4 -17.2 Q7.25 -16.95 8.6 -16.3 11.5 -14.85 12.4 -13.6 10.8 -12.75 7.0 -14.2 4.55 -15.1 4.65 -17.15" fill="#000000" fill-rule="evenodd" stroke="none"/>
    </g>
  </defs>
</svg>
